X:101
T:Lads of Laois (reel), The 
B:CRE1.192 (Gearrbhodai Laoise)
F:file ID: cre.1/101lads_L
S:Ned Stapleton (see note to 5767)
N:Tune is singled here but usually played double.
M:C
L:1/8
Q:180
R:reel
K:Em
EB, (3B,B,B, EGFE|DA, ~A2 DEFD|GEED EFGA|B2eB dBAF|
EB, (3B,B,B, EGFE|DA, ~A2 DEFD|E2BE dBAF|DEFA BEE2||
eB ~B2 egfe|defa gfed|(3B^cd ef gfge|fgaf gfed|
eBB/A/B GBFB|EBBA Bdef|gbge fafd|efed BAFA|E8||

%%%

